resources/static/img/icons/telephone.svg

<?xml version="1.0" encoding="UTF-8" standalone="no"?>
<svg
   xmlns:dc="http://purl.org/dc/elements/1.1/"
   xmlns:cc="http://creativecommons.org/ns#"
   xmlns:rdf="http://www.w3.org/1999/02/22-rdf-syntax-ns#"
   xmlns:svg="http://www.w3.org/2000/svg"
   xmlns="http://www.w3.org/2000/svg"
   style="fill:none"
   id="svg15"
   version="1.1"
   viewBox="0 0 17.999399 18"
   height="18"
   width="17.999399">
  <metadata
     id="metadata19">
    <rdf:RDF>
      <cc:Work
         rdf:about="">
        <dc:format>image/svg+xml</dc:format>
        <dc:type
           rdf:resource="http://purl.org/dc/dcmitype/StillImage" />
      </cc:Work>
    </rdf:RDF>
  </metadata>
  <g
     id="g8"
     clip-path="url(#clip0)">
    <path
       style="fill:#395781"
       id="path2"
       d="m 13.6846,11.9074 c -0.5881,-0.5806 -1.3222,-0.5806 -1.9065,0 -0.4458,0.442 -0.8915,0.8839 -1.3297,1.3334 -0.1199,0.1236 -0.221,0.1498 -0.3671,0.0674 C 9.79289,13.1509 9.48574,13.0236 9.20857,12.8513 7.91633,12.0385 6.83384,10.9934 5.87496,9.81731 5.39926,9.23299 4.97601,8.60747 4.6801,7.90329 4.62017,7.76096 4.63141,7.66732 4.74752,7.5512 5.19325,7.12045 5.62774,6.67847 6.06598,6.23648 6.67652,5.6222 6.67652,4.90304 6.06224,4.28501 5.71389,3.93292 5.36555,3.58832 5.01721,3.23623 4.65763,2.87665 4.30179,2.51333 3.93847,2.15749 3.3504,1.58441 2.61626,1.58441 2.03194,2.16124 1.58246,2.60322 1.15172,3.05644 0.694749,3.49094 0.271493,3.89172 0.0579922,4.3824 0.0130446,4.95548 -0.0581224,5.88814 0.170361,6.76836 0.492485,7.62611 1.15172,9.40154 2.15555,10.9785 3.37288,12.4243 c 1.64433,1.9552 3.60704,3.5021 5.90311,4.6183 1.03381,0.5019 2.10501,0.8877 3.26991,0.9514 0.8016,0.045 1.4983,-0.1573 2.0564,-0.7828 0.382,-0.427 0.8128,-0.8166 1.2173,-1.2248 0.5993,-0.6068 0.6031,-1.341 0.0075,-1.9403 C 15.1154,13.3307 14.4,12.619 13.6846,11.9074 Z" />
    <path
       style="fill:#395781"
       id="path4"
       d="M 12.969,8.92211 14.3511,8.68614 C 14.1338,7.41637 13.5345,6.26646 12.6244,5.35253 11.6617,4.3899 10.4444,3.78311 9.10346,3.59583 L 8.90869,4.98545 c 1.03754,0.14608 1.98141,0.61429 2.72681,1.35967 0.7042,0.70418 1.1649,1.59564 1.3335,2.57699 z" />
    <path
       style="fill:#395781"
       id="path6"
       d="M 15.1302,2.9141 C 13.5346,1.31846 11.5157,0.310887 9.28706,0 L 9.09229,1.38963 c 1.92521,0.26968 3.67071,1.14242 5.04911,2.51706 1.3072,1.30723 2.165,2.95905 2.4759,4.77568 L 17.9994,8.4464 C 17.6361,6.34135 16.6435,4.43108 15.1302,2.9141 Z" />
  </g>
  <defs
     id="defs13">
    <clipPath
       id="clip0">
      <rect
         style="fill:#ffffff"
         y="0"
         x="0"
         id="rect10"
         height="18"
         width="18" />
    </clipPath>
  </defs>
</svg>

<svg width="18" height="18" viewBox="0 0 18 18" fill="none" xmlns="http://www.w3.org/2000/svg">
<g clip-path="url(#clip0)">
<path d="M13.6846 11.9074C13.0965 11.3268 12.3624 11.3268 11.7781 11.9074C11.3323 12.3494 10.8866 12.7913 10.4484 13.2408C10.3285 13.3644 10.2274 13.3906 10.0813 13.3082C9.79289 13.1509 9.48574 13.0236 9.20857 12.8513C7.91633 12.0385 6.83384 10.9934 5.87496 9.81731C5.39926 9.23299 4.97601 8.60747 4.6801 7.90329C4.62017 7.76096 4.63141 7.66732 4.74752 7.5512C5.19325 7.12045 5.62774 6.67847 6.06598 6.23648C6.67652 5.6222 6.67652 4.90304 6.06224 4.28501C5.71389 3.93292 5.36555 3.58832 5.01721 3.23623C4.65763 2.87665 4.30179 2.51333 3.93847 2.15749C3.3504 1.58441 2.61626 1.58441 2.03194 2.16124C1.58246 2.60322 1.15172 3.05644 0.694749 3.49094C0.271493 3.89172 0.0579922 4.3824 0.0130446 4.95548C-0.0581224 5.88814 0.170361 6.76836 0.492485 7.62611C1.15172 9.40154 2.15555 10.9785 3.37288 12.4243C5.01721 14.3795 6.97992 15.9264 9.27599 17.0426C10.3098 17.5445 11.381 17.9303 12.5459 17.994C13.3475 18.039 14.0442 17.8367 14.6023 17.2112C14.9843 16.7842 15.4151 16.3946 15.8196 15.9864C16.4189 15.3796 16.4227 14.6454 15.8271 14.0461C15.1154 13.3307 14.4 12.619 13.6846 11.9074Z" fill="#395781"/>
<path d="M12.969 8.92211L14.3511 8.68614C14.1338 7.41637 13.5345 6.26646 12.6244 5.35253C11.6617 4.3899 10.4444 3.78311 9.10346 3.59583L8.90869 4.98545C9.94623 5.13153 10.8901 5.59974 11.6355 6.34512C12.3397 7.0493 12.8004 7.94076 12.969 8.92211Z" fill="#395781"/>
<path d="M15.1302 2.9141C13.5346 1.31846 11.5157 0.310887 9.28706 0L9.09229 1.38963C11.0175 1.65931 12.763 2.53205 14.1414 3.90669C15.4486 5.21392 16.3064 6.86574 16.6173 8.68237L17.9994 8.4464C17.6361 6.34135 16.6435 4.43108 15.1302 2.9141Z" fill="#395781"/>
</g>
<defs>
<clipPath id="clip0">
<rect width="18" height="18" fill="white"/>
</clipPath>
</defs>
</svg>
